src/assets/svg/Star.svg

<svg width="250" height="250" viewBox="0 0 250 250" fill="none" xmlns="http://www.w3.org/2000/svg">
<path d="M123.562 1.48631C124.349 0.673579 125.651 0.673579 126.438 1.48631L140.966 16.5074C141.586 17.1479 142.554 17.3013 143.341 16.8836L161.801 7.08726C162.799 6.55722 164.039 6.95987 164.535 7.97574L173.711 26.7512C174.102 27.5518 174.976 27.997 175.853 27.8429L196.436 24.2303C197.55 24.0349 198.604 24.8008 198.763 25.9203L201.687 46.6123C201.812 47.4946 202.505 48.188 203.388 48.3127L224.08 51.2374C225.199 51.3957 225.965 52.4498 225.77 53.5635L222.157 74.1465C222.003 75.0242 222.448 75.8979 223.249 76.2892L242.024 85.465C243.04 85.9614 243.443 87.2006 242.913 88.1994L233.116 106.659C232.699 107.446 232.852 108.414 233.493 109.034L248.514 123.562C249.326 124.349 249.326 125.651 248.514 126.438L233.493 140.966C232.852 141.586 232.699 142.554 233.116 143.341L242.913 161.801C243.443 162.799 243.04 164.039 242.024 164.535L223.249 173.711C222.448 174.102 222.003 174.976 222.157 175.853L225.77 196.436C225.965 197.55 225.199 198.604 224.08 198.763L203.388 201.687C202.505 201.812 201.812 202.505 201.687 203.388L198.763 224.08C198.604 225.199 197.55 225.965 196.436 225.77L175.853 222.157C174.976 222.003 174.102 222.448 173.711 223.249L164.535 242.024C164.039 243.04 162.799 243.443 161.801 242.913L143.341 233.116C142.554 232.699 141.586 232.852 140.966 233.493L126.438 248.514C125.651 249.326 124.349 249.326 123.562 248.514L109.034 233.493C108.414 232.852 107.446 232.699 106.659 233.116L88.1994 242.913C87.2006 243.443 85.9614 243.04 85.465 242.024L76.2892 223.249C75.8979 222.448 75.0242 222.003 74.1466 222.157L53.5635 225.77C52.4498 225.965 51.3957 225.199 51.2374 224.08L48.3127 203.388C48.188 202.505 47.4946 201.812 46.6123 201.687L25.9203 198.763C24.8008 198.604 24.0349 197.55 24.2303 196.436L27.8429 175.853C27.997 174.976 27.5518 174.102 26.7512 173.711L7.97574 164.535C6.95987 164.039 6.55722 162.799 7.08726 161.801L16.8836 143.341C17.3013 142.554 17.1479 141.586 16.5074 140.966L1.48631 126.438C0.673579 125.651 0.673579 124.349 1.48631 123.562L16.5074 109.034C17.1479 108.414 17.3013 107.446 16.8836 106.659L7.08726 88.1994C6.55722 87.2006 6.95987 85.9614 7.97574 85.465L26.7512 76.2892C27.5518 75.8979 27.997 75.0242 27.8429 74.1466L24.2303 53.5635C24.0349 52.4498 24.8008 51.3957 25.9203 51.2374L46.6123 48.3127C47.4946 48.188 48.188 47.4946 48.3127 46.6123L51.2374 25.9203C51.3957 24.8008 52.4498 24.0349 53.5635 24.2303L74.1465 27.8429C75.0242 27.997 75.8979 27.5518 76.2892 26.7512L85.465 7.97574C85.9614 6.95987 87.2006 6.55722 88.1994 7.08726L106.659 16.8836C107.446 17.3013 108.414 17.1479 109.034 16.5074L123.562 1.48631Z" fill="#E27A46"/>
</svg>

<svg xmlns="http://www.w3.org/2000/svg" width="250" height="250" fill="none"><path fill="#E27A46" d="M123.562 1.486a2 2 0 0 1 2.876 0l14.528 15.021a2 2 0 0 0 2.375.377l18.46-9.797a2 2 0 0 1 2.734.889l9.176 18.775a2 2 0 0 0 2.142 1.092l20.583-3.613a2 2 0 0 1 2.327 1.69l2.924 20.692a2 2 0 0 0 1.701 1.7l20.692 2.925a2 2 0 0 1 1.69 2.326l-3.613 20.584a2 2 0 0 0 1.092 2.142l18.775 9.176a2 2 0 0 1 .889 2.734l-9.797 18.46a2 2 0 0 0 .377 2.375l15.021 14.528a2 2 0 0 1 0 2.876l-15.021 14.528a2 2 0 0 0-.377 2.375l9.797 18.46a2 2 0 0 1-.889 2.734l-18.775 9.176a2 2 0 0 0-1.092 2.142l3.613 20.583a2 2 0 0 1-1.69 2.327l-20.692 2.924a2 2 0 0 0-1.701 1.701l-2.924 20.692a2 2 0 0 1-2.327 1.69l-20.583-3.613a2 2 0 0 0-2.142 1.092l-9.176 18.775a2 2 0 0 1-2.734.889l-18.46-9.797a2 2 0 0 0-2.375.377l-14.528 15.021a2 2 0 0 1-2.876 0l-14.528-15.021a2 2 0 0 0-2.375-.377l-18.46 9.797a2 2 0 0 1-2.734-.889l-9.176-18.775a2 2 0 0 0-2.142-1.092l-20.584 3.613a2 2 0 0 1-2.326-1.69l-2.924-20.692a2 2 0 0 0-1.7-1.701l-20.693-2.924a2 2 0 0 1-1.69-2.327l3.613-20.583a2 2 0 0 0-1.092-2.142l-18.775-9.176a2 2 0 0 1-.889-2.734l9.797-18.46a2 2 0 0 0-.377-2.375l-15.02-14.528a2 2 0 0 1 0-2.876l15.02-14.528a2 2 0 0 0 .377-2.375l-9.797-18.46a2 2 0 0 1 .889-2.734l18.775-9.176a2 2 0 0 0 1.092-2.142L24.23 53.563a2 2 0 0 1 1.69-2.326l20.692-2.924a2 2 0 0 0 1.7-1.7l2.925-20.693a2 2 0 0 1 2.326-1.69l20.584 3.613a2 2 0 0 0 2.142-1.092l9.176-18.775a2 2 0 0 1 2.734-.889l18.46 9.797a2 2 0 0 0 2.375-.377z"/></svg>
